!!!OTL: Der betruegerische Freier Und als ich auf gruen' Heide kam,
!!!ARE: Europa, Mitteleuropa, Deutschland (BRD), Rheinprovinz
!!!YOR: 2, S. 132
!!    18?? aufgezeichnet (Ende d. Jh.)
!!!SCT: Q0042D
!!!YEM: Copyright 1995, estate of Helmut Schaffrath.
**kern
*ICvox
*Ivox
*M2/4
*k[]
*a:
{16gn
=1
8.gn
16ccn
8ccn
8a
=2
8.a
16gn
8gn
16r}
{16gn
=3
8.ccn
16ccn
8.dd
16dd
=4
4dd
8ee
16r}
{16ccn
=5
8.b
16a
8b
8ccn
=6
4dd
4ee}
=7
{8.a
16b
8ccn
8a
=8
8b
8e
8e}
{8ccn
=9
8.b
16a
8b
8ccn
=10
4dd
8ee
16r}
{16dd
=11
8ccn
8a
8b
8g#
=12
4a
8.r}
==
!!!AGN: Ballade, Braut - Werbung, Betrug; tragisch, Vierte Zeile = Refrain.
!!!ONB: ESAC (Essen Associative Code) Database: BALLADE
!!!AMT: simple duple
!!!AIN: vox
!!!EED: Helmut Schaffrath
!!!EEV: 1.0
*-
